devices/symbolic/kdeconnect-symbolic.svg

<svg xmlns="http://www.w3.org/2000/svg" viewBox="0 0 16 16">
  <defs id="defs3051">
    <style type="text/css" id="current-color-scheme">
      .ColorScheme-Text {
        color:#4d4d4d;
      }
      </style>
  </defs>
 <path 
     style="fill:#bebebe;fill-opacity:1;stroke:none" 
     class="ColorScheme-Text"
     d="M 8 2 A 6 6 0 0 0 2 8 A 6 6 0 0 0 8 14 A 6 6 0 0 0 14 8 A 6 6 0 0 0 8 2 z M 6.1445312 4.9003906 C 6.274785 4.9095826 6.3999092 4.9685273 6.4882812 5.0742188 L 7.3769531 6.1386719 C 7.5536729 6.3503274 7.518466 6.6718067 7.2988281 6.8554688 L 7.1230469 7.0039062 L 6.7636719 7.3027344 C 6.7782198 7.3344352 6.7913601 7.3677754 6.8066406 7.4023438 C 6.9515579 7.7286967 7.1498444 8.1771258 7.5585938 8.6660156 C 7.9661012 9.1538421 8.3706727 9.4270243 8.6660156 9.6269531 C 8.6981497 9.648962 8.7282561 9.6695425 8.7578125 9.6894531 L 9.2949219 9.2421875 C 9.5142249 9.0587887 9.8364476 9.0818359 10.013672 9.2929688 L 10.902344 10.355469 C 11.078945 10.567425 11.045389 10.890556 10.826172 11.074219 L 10.523438 11.322266 L 10.517578 11.316406 C 10.391652 11.397989 10.24793 11.462109 10.097656 11.505859 C 9.9578083 11.546274 9.8218968 11.568076 9.6816406 11.572266 C 9.6173185 11.573332 8.128041 11.580386 6.4589844 9.5839844 C 5.2515487 8.1396172 4.8516925 7.1181557 5.0761719 6.0605469 C 5.103145 5.9285693 5.1475263 5.7987638 5.2128906 5.6640625 C 5.2833725 5.5227126 5.3717897 5.392728 5.4746094 5.2832031 L 5.46875 5.2753906 L 5.7675781 5.0234375 C 5.8773971 4.9316066 6.0142775 4.8911986 6.1445312 4.9003906 z "
     />
</svg>

<svg xmlns="http://www.w3.org/2000/svg" viewBox="0 0 16 16">
  <path fill="#bebebe" d="M8 2a6 6 0 0 0-6 6 6 6 0 0 0 6 6 6 6 0 0 0 6-6 6 6 0 0 0-6-6zM6.145 4.9a.49.49 0 0 1 .343.174l.889 1.065a.51.51 0 0 1-.078.716l-.176.149-.36.299c.015.031.028.065.044.1.145.326.343.774.752 1.263.407.488.812.761 1.107.961.032.022.062.043.092.062l.537-.447a.51.51 0 0 1 .719.051l.888 1.062a.513.513 0 0 1-.076.72l-.303.247-.005-.006a1.657 1.657 0 0 1-.836.256c-.065.001-1.554.008-3.223-1.988C5.252 8.14 4.852 7.118 5.076 6.061a1.661 1.661 0 0 1 .399-.778l-.006-.008.299-.252a.53.53 0 0 1 .377-.123z"/>
</svg>
